lib/flags/cd-democratic-republic-of-the-congo.svg

<svg xmlns="http://www.w3.org/2000/svg" fill="none" aria-hidden="true" viewBox="0 0 42 30"><g id="Country=CD - Democratic Republic of the Congo, Size=sm (36x24)" filter="url(#filter0_dd_91_29031)"><g clip-path="url(#clip0_91_29031)"><g id="flag"><mask id="mask0_91_29031" width="36" height="24" x="3" y="2" maskUnits="userSpaceOnUse" style="mask-type:alpha"><rect id="mask" width="36" height="24" x="3" y="2" fill="white"/></mask><g mask="url(#mask0_91_29031)"><g id="contents"><path id="background" fill="#3195F9" fill-rule="evenodd" d="M3 2V26H39V2H3Z" clip-rule="evenodd"/><mask id="mask1_91_29031" width="36" height="24" x="3" y="2" maskUnits="userSpaceOnUse" style="mask-type:alpha"><path id="background_2" fill="white" fill-rule="evenodd" d="M3 2V26H39V2H3Z" clip-rule="evenodd"/></mask><g mask="url(#mask1_91_29031)"><path id="Path 14" fill="#E31D1C" stroke="#FECA00" stroke-width="2.5" d="M1.12077 27.4959L1.79397 28.3924L2.75816 27.8203L43.5517 3.61682L44.7503 2.90567L43.9134 1.79121L41.4152 -1.53574L40.742 -2.43225L39.7778 -1.86018L-1.01576 22.3433L-2.21436 23.0544L-1.37749 24.1689L1.12077 27.4959Z"/><g id="mark"><path id="Star 5" fill="#FECA00" fill-rule="evenodd" d="M8.54699 10.6063L4.62565 13.024L5.87866 8.88304L3 6.23781L6.89787 6.09478L8.54699 2L10.1961 6.09478H14.0873L11.2153 8.88304L12.6537 12.7796L8.54699 10.6063Z" clip-rule="evenodd"/></g></g></g></g></g></g></g><defs><filter id="filter0_dd_91_29031" width="42" height="30" x="0" y="0" color-interpolation-filters="sRGB" filterUnits="userSpaceOnUse"><feFlood flood-opacity="0" result="BackgroundImageFix"/><feColorMatrix in="SourceAlpha" result="hardAlpha" values="0 0 0 0 0 0 0 0 0 0 0 0 0 0 0 0 0 0 127 0"/><feOffset dy="1"/><feGaussianBlur stdDeviation="1"/><feColorMatrix values="0 0 0 0 0.0627451 0 0 0 0 0.0941176 0 0 0 0 0.156863 0 0 0 0.06 0"/><feBlend in2="BackgroundImageFix" result="effect1_dropShadow_91_29031"/><feColorMatrix in="SourceAlpha" result="hardAlpha" values="0 0 0 0 0 0 0 0 0 0 0 0 0 0 0 0 0 0 127 0"/><feOffset dy="1"/><feGaussianBlur stdDeviation="1.5"/><feColorMatrix values="0 0 0 0 0.0627451 0 0 0 0 0.0941176 0 0 0 0 0.156863 0 0 0 0.1 0"/><feBlend in2="effect1_dropShadow_91_29031" result="effect2_dropShadow_91_29031"/><feBlend in="SourceGraphic" in2="effect2_dropShadow_91_29031" result="shape"/></filter><clipPath id="clip0_91_29031"><rect width="36" height="24" x="3" y="2" fill="white" rx="2"/></clipPath></defs></svg>

<svg xmlns="http://www.w3.org/2000/svg" fill="none" aria-hidden="true" viewBox="0 0 42 30"><g filter="url(#a)"><g clip-path="url(#b)"><mask id="c" width="36" height="24" x="3" y="2" maskUnits="userSpaceOnUse" style="mask-type:alpha"><path fill="#fff" d="M3 2h36v24H3z"/></mask><g mask="url(#c)"><path fill="#3195F9" fill-rule="evenodd" d="M3 2v24h36V2H3Z" clip-rule="evenodd"/><mask id="d" width="36" height="24" x="3" y="2" maskUnits="userSpaceOnUse" style="mask-type:alpha"><path fill="#fff" fill-rule="evenodd" d="M3 2v24h36V2H3Z" clip-rule="evenodd"/></mask><g mask="url(#d)"><path fill="#E31D1C" stroke="#FECA00" stroke-width="2.5" d="m1.12 27.496.674.896.964-.572L43.552 3.617l1.198-.711-.837-1.115-2.498-3.327-.673-.896-.964.572-40.794 24.203-1.198.711.837 1.115 2.498 3.327Z"/><path fill="#FECA00" fill-rule="evenodd" d="m8.547 10.606-3.921 2.418 1.253-4.141L3 6.238l3.898-.143L8.547 2l1.65 4.095h3.89l-2.872 2.788 1.439 3.897-4.107-2.174Z" clip-rule="evenodd"/></g></g></g></g><defs><clipPath id="b"><rect width="36" height="24" x="3" y="2" fill="#fff" rx="2"/></clipPath><filter id="a" width="42" height="30" x="0" y="0" color-interpolation-filters="sRGB" filterUnits="userSpaceOnUse"><feFlood flood-opacity="0" result="BackgroundImageFix"/><feColorMatrix in="SourceAlpha" result="hardAlpha" values="0 0 0 0 0 0 0 0 0 0 0 0 0 0 0 0 0 0 127 0"/><feOffset dy="1"/><feGaussianBlur stdDeviation="1"/><feColorMatrix values="0 0 0 0 0.0627451 0 0 0 0 0.0941176 0 0 0 0 0.156863 0 0 0 0.06 0"/><feBlend in2="BackgroundImageFix" result="effect1_dropShadow_91_29031"/><feColorMatrix in="SourceAlpha" result="hardAlpha" values="0 0 0 0 0 0 0 0 0 0 0 0 0 0 0 0 0 0 127 0"/><feOffset dy="1"/><feGaussianBlur stdDeviation="1.5"/><feColorMatrix values="0 0 0 0 0.0627451 0 0 0 0 0.0941176 0 0 0 0 0.156863 0 0 0 0.1 0"/><feBlend in2="effect1_dropShadow_91_29031" result="effect2_dropShadow_91_29031"/><feBlend in="SourceGraphic" in2="effect2_dropShadow_91_29031" result="shape"/></filter></defs></svg>
